X:1
T:Come, let us anew our journey pursue
T:Come, let us anew our journey pursue - Honiton (Thomas Clark)
C:Thomas Clark
Z:p80, A Fifth Set of
Z:Psalm and Hymn Tunes,
Z:London: [c1809]
%%score [ 1 2 3 4 ]
L:1/8
M:3/4
K:D
V:1 treble nm="SOPRANO" snm="S."
V:2 treble nm="ALTO" snm="A."
V:3 treble-8 transpose=-12 nm="TENOR" snm="T."
V:4 bass nm="BASS" snm="B."
V:1
 (AA) | d2 c2 B2 | A4 (gg) | (fe) d2 c2 | d4 (AA) | A2 G2 F2 | (F2 E2) (AA) | (Bd) (cB) (A^G) | %8
w: Our _|life is a|dream, Our _|time _ as a|stream Glides mil-|swift- ly a-|way, _ glides mil-|swift- * ly _ a- *|
w: Come _|let us a-|new Our _|jour- * ney pur-|sue, Roll _|round with the|year, _ roll _|round _ with _ the _|
w: His a-|do- ra- ble|will Let us|glad- * ly ful-|fil, And our|ta- lents im-|prove, _ and our|ta- * lents _ im- *|
 A4 (AA) | d3 A (B=c) | B4 BB | e3 B (cd) | c4 (dd) | A3 G F2 | B4 AG | F3 F E2 | D4 |] %17
w: way, And the|fu- gi- tive _|mo- ment re-|fu- ses to _|stay, and the|fu- gi- tive|mo- ment re-|fu- ses to|stay.|
w: year, And _|ne- ver stand _|still till the|Mas- ter ap- *|pear, and _|ne- ver stand|still till the|Mas- ter ap-|pear.|
w: prove By the|pa- tience of _|hope, and the|la- bour of _|love, by the|pa- tience of|hope, and the|la- bour of|love.|
V:2
 (FF) | F2 E2 E2 | A4 (BB) | (AG) F2 E2 | F4 (FF) | F2 E2 D2 | (D2 C2) (EE) | F2 E2 E2 | E4 (DD) | %9
w: Our _|life is a|dream, Our _|time _ as a|stream Glides mil-|swift- ly a-|way, _ glides mil-|swift- ly a-|way, And the|
w: Come _|let us a-|new Our _|jour- * ney pur-|sue, Roll _|round with the|year, _ roll _|round with the|year, And _|
w: His a-|do- ra- ble|will Let us|glad- * ly ful-|fil, And our|ta- lents im-|prove, _ and our|ta- lents im-|prove By the|
 F3 D D2 | D4 DD | G3 E E2 | E4 (FF) | D3 D D2 | D4 DE | D3 D C2 | D4 |] %17
w: fu- gi- tive|mo- ment re-|fu- ses to|stay, and the|fu- gi- tive|mo- ment re-|fu- ses to|stay.|
w: ne- ver stand|still till the|Mas- ter ap-|pear, and _|ne- ver stand|still till the|Mas- ter ap-|pear.|
w: pa- tience of|hope, and the|la- bour of|love, by the|pa- tience of|hope, and the|la- bour of|love.|
V:3
 (dd) | A2 A2 (Bc) | d4 (dd) | (dB) A2 A2 | A4 (dd) | d2 A2 A2 | A4 (AA) | (dB) (ed) (cB) | %8
w: Our _|life is a _|dream, Our _|time _ as a|stream Glides mil-|swift- ly a-|way, glides mil-|swift- * ly _ a- *|
w: Come _|let us a- *|new Our _|jour- * ney pur-|sue, Roll _|round with the|year, roll _|round _ with _ the _|
w: His a-|do- ra- ble _|will Let us|glad- * ly ful-|fil, And our|ta- lents im-|prove, and our|ta- * lents _ im- *|
 c4 (FF) | A3 F (GA) | G4 GG | B3 ^G (AB) | A4 (AA) | A3 A A2 | G4 AB | A3 A G2 | F4 |] %17
w: way, And the|fu- gi- tive _|mo- ment re-|fu- ses to _|stay, and the|fu- gi- tive|mo- ment re-|fu- ses to|stay.|
w: year, And _|ne- ver stand _|still till the|Mas- ter ap- *|pear, and _|ne- ver stand|still till the|Mas- ter ap-|pear.|
w: prove By the|pa- tience of _|hope, and the|la- bour of _|love, by the|pa- tience of|hope, and the|la- bour of|love.|
V:4
 (D,D,) | D,2 A,,2"^6" G,2 |"^6" F,4"^7" (E,E,) |"^6" (F,"^6"G,)"^64" A,2"^53" A,,2 | D,4 (D,D,) | %5
w: Our _|life is a|dream, Our _|time _ as a|stream Glides mil-|
w: Come _|let us a-|new Our _|jour- * ney pur-|sue, Roll _|
w: His a-|do- ra- ble|will Let us|glad- * ly ful-|fil, And our|
 D,2"^65" C,2 D,2 |"^64""^53" A,,4"^6" (C,C,) |"^6" D,2"^86""^75" E,2"^64""^5#" E,2 | A,,4 (D,D,) | %9
w: swift- ly a-|way, glides mil-|swift- ly a-|way, And the|
w: round with the|year, roll _|round with the|year, And _|
w: ta- lents im-|prove, and our|ta- lents im-|prove By the|
 D,3 D,"^64""^U5" D,2 | G,4 G,G, | E,3"^#" E,"^64""^75" E,2 | %12
w: fu- gi- tive|mo- ment re-|fu- ses to|
w: ne- ver stand|still till the|Mas- ter ap-|
w: pa- tience of|hope, and the|la- bour of|
"^Notes:The order of staves in the source is Tenor - [Alto] - Air - [Bass], with the alto part printed in the treble clef an octave abovesounding pitch.Only the first verse of text is given in the source: subsequent verses have here been added editorially.Where pairs of quavers are given in this edition with dashed slurs, these correspond to crotchets in the source, which havebeen split editorially to accommodate word fit in the second and subsequent verses." A,4 (D,"^O that each in the dayOf his coming might say‘I have fought my way through,I have finish’d the work thou didst give me to do!’O that each from his LordMay receive the glad word‘Well and faithfully done,Enter into my joy, and sit down on my throne!’"D,) | %13
w: stay, and the|
w: pear, and _|
w: love, by the|
"^6" F,3 E, D,2 | G,4"^6" F,"^6"G, |"^64" A,3 A,"^53" A,,2 | D,4 |] %17
w: fu- gi- tive|mo- ment re-|fu- ses to|stay.|
w: ne- ver stand|still till the|Mas- ter ap-|pear.|
w: pa- tience of|hope, and the|la- bour of|love.|

